X:1
T:Rex Gloriae, 87.87 D
T:Henry Thomas Smart, 1868
T:Rex Gloriae, 87.87 D
T:Public Domain
C:Henry Thomas Smart, 1868
Z:Public Domain
%%score ( 1 2 ) ( 3 4 )
L:1/8
M:4/4
K:G
V:1 treble 
V:2 treble 
V:3 bass 
V:4 bass 
V:1
 [DG]2 [A,D]2 [B,G]2 [DA]2 | D2 z c [DB]2 [DA]2 | [Dd]2 [B,G]2 [EA]2 (Bc) | [DB]2 [DA]2 [DB]4 | %4
 [DB]2 [DA]2 [DB]2 [Dd]2 | (B,^C) [DF]2 [DF]2 [CE]2 | [EA]2 (FE) [Dd]2 [DF]2 | [DE]2 [^CE]2 D4 | %8
 D3 [DE] [DF]2 [EA]2 | [DG]2 [DF]2 [CE]2 [B,D]2 | [B,G]2 [DA]2 (Bc) [Dd]2 | [Dc]2 [DB]2 [DA]4 | %12
 [DG]2 D2 [DG]2 [DA]2 | D2 z c [DB]2 [DA]2 x2 | [Dd]2 [B,G]2 [Ec]2 [DB]2 | A2 z C [B,G]4 |] %16
V:2
 x8 | B3 D2 x3 | x6 E2 | x8 | x8 | G2 x6 | x2 A2 x4 | x4 D4 | D3 x5 | x8 | x4 D2 x2 | x8 | %12
 x2 D2 x4 | B3 G2 x5 | x8 | D3 A2 x3 |] %16
V:3
 [G,B,]2 [F,A,]2 [E,G,]2 (D,C,) | B,,2 z A, [D,G,]2 [D,F,]2 | [B,,G,]2 [E,G,]2 [C,G,]2 (B,,A,,) | %3
 [D,G,]2 [D,F,]2 [G,,G,]4 | G,2 [D,F,]2 G,2 [F,A,]2 | [E,B,]2 (F,G,) A,2 [A,,A,]2 | %6
 [^C,G,]2 (A,G,) [B,,F,]2 [A,,A,]2 | [G,,B,]2 (A,G,) [D,F,]4 | [D,F,]3 [D,G,] [D,A,]2 [A,,^C]2 | %9
 (B,,C,) [D,A,]2 ([E,G,][F,A,]) [G,B,]2 | [E,G,]2 [D,F,]2 (G,A,) [B,,B,]2 | %11
 [A,,F,]2 [G,,G,]2 (D,2 C,2) | [B,,G,]2 (D,C,) [B,,G,]2 [A,,F,]2 | G,,2 z A, G,2 z C, x2 | %14
 [B,,G,]2 [E,G,]2 [C,G,]2 [G,,G,]2 | [D,G,]2 [D,F,]2 [G,,G,]4 |] %16
V:4
 x6 F,2 | G,3 G,,2 x3 | x6 G,2 | x8 | G,2 G,2 x4 | x2 A,2 A,2 x2 | x2 A,,2 x4 | x2 A,,2 x4 | x8 | %9
 B,2 x6 | x4 G,2 x2 | x4 F,4 | x2 F,2 x4 | G,3 (E,2 D,3) F,2 | x8 | x8 |] %16

